X: 1
T: Prince Charlie's Last View of Scotland
C: William Marshall
R: air
Z: 2015 John Chambers <jc:trillian.mit.edu>
S: printed page in the Concord Slow Scottish Session collection
M: 6/8
L: 1/16
Q: "Slow and Tender"
K: Gm
|: !p!(GA) !segno!|\
~B3cB2 ({B}A4G^F) | (GD3B2) =F2D2B,2 |\
 B3cB2 ({B}A4G^F) | (G2A2c2) ({^c}d4D2) |
~B3cB2 ({B}A4G^F) | (GD3B2) =F2D2(B,C) |\
D3^CD2 ({A,}B,4A,2) | G,2(G2^F2) H{A}G4 !fine!:|
D2 |\
"_cresc."B3AG2 A2(^F2D2) | B3cd2 (G2^F2)D2 |\
B3AG2 c3BA2 | ({^c}d4^F2) G4 z!f!D |
[B6D6] [c6E6] | d3^cd2 Hg2 ab |\
{e}d2c2B2 {d}c2B2A2 | "_rall."({A}G^F)(GA)Bc {^c}Hd4"_d.S. al Fine"D2 |]
